images/logo.svg

<svg width="117" height="46" viewBox="0 0 117 46" fill="none" xmlns="http://www.w3.org/2000/svg">
<path d="M116.891 33.5505C114.264 28.2743 109.326 25 104 25C98.6737 25 93.7342 28.2743 91.1085 33.5505C91.0369 33.6925 91 33.8457 91 34.0007C91 34.1556 91.0369 34.3088 91.1085 34.4508C93.7342 39.727 98.6721 43 104 43C109.328 43 114.266 39.727 116.891 34.4508C116.963 34.3088 117 34.1556 117 34.0007C117 33.8457 116.963 33.6925 116.891 33.5505ZM104 40.7505C99.868 40.7505 95.9822 38.174 93.7342 34.0007C95.9822 29.826 99.8665 27.2495 104 27.2495C108.132 27.2495 112.018 29.826 114.266 34.0007C112.018 38.174 108.134 40.7505 104 40.7505ZM104 29.5003C102.621 29.5003 101.299 29.9745 100.325 30.8184C99.3498 31.6624 98.8021 32.8071 98.8021 34.0007C98.8021 35.1942 99.3498 36.3389 100.325 37.1829C101.299 38.0269 102.621 38.501 104 38.501C105.379 38.501 106.701 38.0269 107.675 37.1829C108.65 36.3389 109.198 35.1942 109.198 34.0007C109.198 32.8071 108.65 31.6624 107.675 30.8184C106.701 29.9745 105.379 29.5003 104 29.5003ZM104 36.2502C103.311 36.2502 102.65 36.0132 102.163 35.5913C101.676 35.1694 101.402 34.5973 101.402 34.0007C101.402 33.4041 101.676 32.8319 102.163 32.41C102.65 31.9882 103.311 31.7512 104 31.7512C104.689 31.7512 105.35 31.9882 105.837 32.41C106.324 32.8319 106.598 33.4041 106.598 34.0007C106.598 34.5973 106.324 35.1694 105.837 35.5913C105.35 36.0132 104.689 36.2502 104 36.2502Z" fill="#944EF5"/>
<path d="M8.46 41.28C7.34 41.28 6.30667 41.1 5.36 40.74C4.41333 40.38 3.58667 39.8733 2.88 39.22C2.18667 38.5533 1.64667 37.78 1.26 36.9C0.873333 36.02 0.68 35.0533 0.68 34C0.68 32.9467 0.873333 31.98 1.26 31.1C1.64667 30.22 2.18667 29.4533 2.88 28.8C3.58667 28.1333 4.41333 27.62 5.36 27.26C6.30667 26.9 7.34 26.72 8.46 26.72C9.59333 26.72 10.6267 26.9 11.56 27.26C12.5067 27.62 13.3267 28.1333 14.02 28.8C14.7133 29.4533 15.2533 30.22 15.64 31.1C16.04 31.98 16.24 32.9467 16.24 34C16.24 35.0533 16.04 36.0267 15.64 36.92C15.2533 37.8 14.7133 38.5667 14.02 39.22C13.3267 39.8733 12.5067 40.38 11.56 40.74C10.6267 41.1 9.59333 41.28 8.46 41.28ZM8.46 38C8.99333 38 9.48667 37.9067 9.94 37.72C10.4067 37.5333 10.8067 37.2667 11.14 36.92C11.4867 36.56 11.7533 36.1333 11.94 35.64C12.14 35.1467 12.24 34.6 12.24 34C12.24 33.3867 12.14 32.84 11.94 32.36C11.7533 31.8667 11.4867 31.4467 11.14 31.1C10.8067 30.74 10.4067 30.4667 9.94 30.28C9.48667 30.0933 8.99333 30 8.46 30C7.92667 30 7.42667 30.0933 6.96 30.28C6.50667 30.4667 6.10667 30.74 5.76 31.1C5.42667 31.4467 5.16 31.8667 4.96 32.36C4.77333 32.84 4.68 33.3867 4.68 34C4.68 34.6 4.77333 35.1467 4.96 35.64C5.16 36.1333 5.42667 36.56 5.76 36.92C6.10667 37.2667 6.50667 37.5333 6.96 37.72C7.42667 37.9067 7.92667 38 8.46 38ZM18.3141 41V27H24.7141C25.9941 27 27.0941 27.2067 28.0141 27.62C28.9474 28.0333 29.6674 28.6333 30.1741 29.42C30.6807 30.1933 30.9341 31.1133 30.9341 32.18C30.9341 33.2333 30.6807 34.1467 30.1741 34.92C29.6674 35.68 28.9474 36.2667 28.0141 36.68C27.0941 37.08 25.9941 37.28 24.7141 37.28H20.5141L22.2741 35.62V41H18.3141ZM26.9741 41L23.4941 35.9H27.7141L31.2141 41H26.9741ZM22.2741 36.04L20.5141 34.22H24.4741C25.3007 34.22 25.9141 34.04 26.3141 33.68C26.7274 33.32 26.9341 32.82 26.9341 32.18C26.9341 31.5267 26.7274 31.02 26.3141 30.66C25.9141 30.3 25.3007 30.12 24.4741 30.12H20.5141L22.2741 28.3V36.04ZM31.4387 41L37.6188 27H41.5188L47.7188 41H43.5988L38.7588 28.94H40.3188L35.4788 41H31.4387ZM34.8188 38.28L35.8388 35.36H42.6788L43.6988 38.28H34.8188ZM55.6261 41.28C54.5194 41.28 53.4928 41.1067 52.5461 40.76C51.6128 40.4 50.7994 39.8933 50.1061 39.24C49.4261 38.5867 48.8928 37.82 48.5061 36.94C48.1194 36.0467 47.9261 35.0667 47.9261 34C47.9261 32.9333 48.1194 31.96 48.5061 31.08C48.8928 30.1867 49.4261 29.4133 50.1061 28.76C50.7994 28.1067 51.6128 27.6067 52.5461 27.26C53.4928 26.9 54.5194 26.72 55.6261 26.72C56.9194 26.72 58.0728 26.9467 59.0861 27.4C60.1128 27.8533 60.9661 28.5067 61.6461 29.36L59.1261 31.64C58.6728 31.1067 58.1728 30.7 57.6261 30.42C57.0928 30.14 56.4928 30 55.8261 30C55.2528 30 54.7261 30.0933 54.2461 30.28C53.7661 30.4667 53.3528 30.74 53.0061 31.1C52.6728 31.4467 52.4061 31.8667 52.2061 32.36C52.0194 32.8533 51.9261 33.4 51.9261 34C51.9261 34.6 52.0194 35.1467 52.2061 35.64C52.4061 36.1333 52.6728 36.56 53.0061 36.92C53.3528 37.2667 53.7661 37.5333 54.2461 37.72C54.7261 37.9067 55.2528 38 55.8261 38C56.4928 38 57.0928 37.86 57.6261 37.58C58.1728 37.3 58.6728 36.8933 59.1261 36.36L61.6461 38.64C60.9661 39.48 60.1128 40.1333 59.0861 40.6C58.0728 41.0533 56.9194 41.28 55.6261 41.28ZM63.4117 41V27H67.3717V37.86H74.0517V41H63.4117ZM79.2588 32.42H85.7588V35.38H79.2588V32.42ZM79.5388 37.94H86.8588V41H75.6188V27H86.5988V30.06H79.5388V37.94Z" fill="white"/>
<path d="M1.4 19V5H5.36V15.86H12.04V19H1.4ZM19.9303 19.28C17.8636 19.28 16.2503 18.7133 15.0903 17.58C13.9303 16.4467 13.3503 14.84 13.3503 12.76V5H17.3103V12.64C17.3103 13.84 17.5436 14.7 18.0103 15.22C18.4903 15.74 19.1436 16 19.9703 16C20.797 16 21.4436 15.74 21.9103 15.22C22.377 14.7 22.6103 13.84 22.6103 12.64V5H26.5103V12.76C26.5103 14.84 25.9303 16.4467 24.7703 17.58C23.6103 18.7133 21.997 19.28 19.9303 19.28ZM36.173 19.28C35.0663 19.28 34.0396 19.1067 33.093 18.76C32.1596 18.4 31.3463 17.8933 30.653 17.24C29.973 16.5867 29.4396 15.82 29.053 14.94C28.6663 14.0467 28.473 13.0667 28.473 12C28.473 10.9333 28.6663 9.96 29.053 9.08C29.4396 8.18667 29.973 7.41333 30.653 6.76C31.3463 6.10667 32.1596 5.60667 33.093 5.26C34.0396 4.9 35.0663 4.72 36.173 4.72C37.4663 4.72 38.6196 4.94667 39.633 5.4C40.6596 5.85333 41.513 6.50667 42.193 7.36L39.673 9.64C39.2196 9.10667 38.7196 8.7 38.173 8.42C37.6396 8.14 37.0396 8 36.373 8C35.7996 8 35.273 8.09333 34.793 8.28C34.313 8.46667 33.8996 8.74 33.553 9.1C33.2196 9.44667 32.953 9.86667 32.753 10.36C32.5663 10.8533 32.473 11.4 32.473 12C32.473 12.6 32.5663 13.1467 32.753 13.64C32.953 14.1333 33.2196 14.56 33.553 14.92C33.8996 15.2667 34.313 15.5333 34.793 15.72C35.273 15.9067 35.7996 16 36.373 16C37.0396 16 37.6396 15.86 38.173 15.58C38.7196 15.3 39.2196 14.8933 39.673 14.36L42.193 16.64C41.513 17.48 40.6596 18.1333 39.633 18.6C38.6196 19.0533 37.4663 19.28 36.173 19.28ZM47.4986 15.9L47.2786 11.46L53.2986 5H57.6586L51.6586 11.5L49.4586 13.8L47.4986 15.9ZM43.9586 19V5H47.8786V19H43.9586ZM53.3586 19L48.7986 13.22L51.3786 10.46L57.9586 19H53.3586ZM61.483 19V13.08L62.403 15.46L56.143 5H60.323L64.843 12.58H62.423L66.963 5H70.803L64.563 15.46L65.443 13.08V19H61.483Z" fill="#944EF5"/>
<path d="M74.6748 19.28C73.6482 19.28 72.7148 19.1067 71.8748 18.76C71.0482 18.4 70.3615 17.8867 69.8148 17.22L71.9748 14.66C72.3482 15.14 72.7348 15.5067 73.1348 15.76C73.5348 16 73.9548 16.12 74.3948 16.12C75.5682 16.12 76.1548 15.44 76.1548 14.08V8.06H71.3148V5H80.0748V13.84C80.0748 15.6667 79.6148 17.0333 78.6948 17.94C77.7748 18.8333 76.4348 19.28 74.6748 19.28ZM86.3877 10.42H92.8877V13.38H86.3877V10.42ZM86.6677 15.94H93.9877V19H82.7477V5H93.7277V8.06H86.6677V15.94ZM99.1652 19V8.14H94.8652V5H107.405V8.14H103.125V19H99.1652Z" fill="white"/>
</svg>

<svg xmlns="http://www.w3.org/2000/svg" width="117" height="46" fill="none"><path fill="#944EF5" d="M116.891 33.55C114.264 28.274 109.326 25 104 25s-10.266 3.274-12.891 8.55a.997.997 0 0 0 0 .9C93.734 39.728 98.672 43 104 43s10.266-3.273 12.891-8.55a.993.993 0 0 0 0-.9ZM104 40.75c-4.132 0-8.018-2.576-10.266-6.75 2.248-4.174 6.133-6.75 10.266-6.75 4.132 0 8.018 2.576 10.266 6.75-2.248 4.174-6.132 6.75-10.266 6.75Zm0-11.25c-1.379 0-2.701.474-3.675 1.318-.975.844-1.523 1.99-1.523 3.183 0 1.193.548 2.338 1.523 3.182.974.844 2.296 1.318 3.675 1.318s2.701-.474 3.675-1.318c.975-.844 1.523-1.989 1.523-3.182 0-1.194-.548-2.339-1.523-3.183-.974-.844-2.296-1.318-3.675-1.318Zm0 6.75c-.689 0-1.35-.237-1.837-.659-.487-.422-.761-.994-.761-1.59 0-.597.274-1.17.761-1.591.487-.422 1.148-.659 1.837-.659.689 0 1.35.237 1.837.659.487.422.761.994.761 1.59 0 .597-.274 1.17-.761 1.591-.487.422-1.148.66-1.837.66Z"/><path fill="#fff" d="M8.46 41.28c-1.12 0-2.153-.18-3.1-.54a7.58 7.58 0 0 1-2.48-1.52 7.215 7.215 0 0 1-1.62-2.32C.873 36.02.68 35.053.68 34s.193-2.02.58-2.9a6.991 6.991 0 0 1 1.62-2.3 7.409 7.409 0 0 1 2.48-1.54c.947-.36 1.98-.54 3.1-.54 1.133 0 2.167.18 3.1.54.947.36 1.767.873 2.46 1.54a6.992 6.992 0 0 1 1.62 2.3c.4.88.6 1.847.6 2.9s-.2 2.027-.6 2.92a6.992 6.992 0 0 1-1.62 2.3 7.353 7.353 0 0 1-2.46 1.52c-.933.36-1.967.54-3.1.54Zm0-3.28c.533 0 1.027-.093 1.48-.28a3.386 3.386 0 0 0 1.2-.8c.347-.36.613-.787.8-1.28.2-.493.3-1.04.3-1.64 0-.613-.1-1.16-.3-1.64a3.514 3.514 0 0 0-.8-1.26 3.266 3.266 0 0 0-1.2-.82A3.849 3.849 0 0 0 8.46 30a4 4 0 0 0-1.5.28c-.453.187-.853.46-1.2.82-.333.347-.6.767-.8 1.26-.187.48-.28 1.027-.28 1.64 0 .6.093 1.147.28 1.64.2.493.467.92.8 1.28.347.347.747.613 1.2.8a4 4 0 0 0 1.5.28Zm9.854 3V27h6.4c1.28 0 2.38.207 3.3.62.933.413 1.653 1.013 2.16 1.8.507.773.76 1.693.76 2.76 0 1.053-.253 1.967-.76 2.74-.507.76-1.227 1.347-2.16 1.76-.92.4-2.02.6-3.3.6h-4.2l1.76-1.66V41h-3.96Zm8.66 0-3.48-5.1h4.22l3.5 5.1h-4.24Zm-4.7-4.96-1.76-1.82h3.96c.827 0 1.44-.18 1.84-.54.413-.36.62-.86.62-1.5 0-.653-.207-1.16-.62-1.52-.4-.36-1.013-.54-1.84-.54h-3.96l1.76-1.82v7.74ZM31.44 41l6.18-14h3.9l6.2 14h-4.12l-4.84-12.06h1.56L35.479 41h-4.04Zm3.38-2.72 1.02-2.92h6.84l1.02 2.92h-8.88Zm20.807 3c-1.107 0-2.133-.173-3.08-.52a7.399 7.399 0 0 1-2.44-1.52 7.137 7.137 0 0 1-1.6-2.3c-.387-.893-.58-1.873-.58-2.94s.193-2.04.58-2.92a7.08 7.08 0 0 1 1.6-2.32 7.14 7.14 0 0 1 2.44-1.5c.947-.36 1.973-.54 3.08-.54 1.293 0 2.447.227 3.46.68a6.657 6.657 0 0 1 2.56 1.96l-2.52 2.28c-.453-.533-.953-.94-1.5-1.22-.533-.28-1.133-.42-1.8-.42-.573 0-1.1.093-1.58.28-.48.187-.893.46-1.24.82-.333.347-.6.767-.8 1.26a4.6 4.6 0 0 0-.28 1.64c0 .6.093 1.147.28 1.64.2.493.467.92.8 1.28.347.347.76.613 1.24.8.48.187 1.007.28 1.58.28.667 0 1.267-.14 1.8-.42.547-.28 1.047-.687 1.5-1.22l2.52 2.28a6.926 6.926 0 0 1-2.56 1.96c-1.013.453-2.167.68-3.46.68Zm7.786-.28V27h3.96v10.86h6.68V41h-10.64Zm15.847-8.58h6.5v2.96h-6.5v-2.96Zm.28 5.52h7.32V41h-11.24V27h10.98v3.06h-7.06v7.88Z"/><path fill="#944EF5" d="M1.4 19V5h3.96v10.86h6.68V19H1.4Zm18.53.28c-2.066 0-3.68-.567-4.84-1.7-1.16-1.133-1.74-2.74-1.74-4.82V5h3.96v7.64c0 1.2.234 2.06.7 2.58.48.52 1.134.78 1.96.78.827 0 1.474-.26 1.94-.78.467-.52.7-1.38.7-2.58V5h3.9v7.76c0 2.08-.58 3.687-1.74 4.82-1.16 1.133-2.773 1.7-4.84 1.7Zm16.243 0c-1.107 0-2.133-.173-3.08-.52a7.398 7.398 0 0 1-2.44-1.52 7.135 7.135 0 0 1-1.6-2.3c-.387-.893-.58-1.873-.58-2.94s.193-2.04.58-2.92a7.078 7.078 0 0 1 1.6-2.32 7.138 7.138 0 0 1 2.44-1.5c.947-.36 1.973-.54 3.08-.54 1.293 0 2.447.227 3.46.68a6.658 6.658 0 0 1 2.56 1.96l-2.52 2.28c-.453-.533-.953-.94-1.5-1.22-.533-.28-1.133-.42-1.8-.42-.573 0-1.1.093-1.58.28-.48.187-.893.46-1.24.82-.333.347-.6.767-.8 1.26a4.6 4.6 0 0 0-.28 1.64c0 .6.093 1.147.28 1.64.2.493.467.92.8 1.28.347.347.76.613 1.24.8.48.187 1.007.28 1.58.28.667 0 1.267-.14 1.8-.42.547-.28 1.047-.687 1.5-1.22l2.52 2.28a6.927 6.927 0 0 1-2.56 1.96c-1.013.453-2.167.68-3.46.68Zm11.326-3.38-.22-4.44L53.299 5h4.36l-6 6.5-2.2 2.3-1.96 2.1Zm-3.54 3.1V5h3.92v14h-3.92Zm9.4 0-4.56-5.78 2.58-2.76 6.58 8.54h-4.6Zm8.124 0v-5.92l.92 2.38L56.143 5h4.18l4.52 7.58h-2.42L66.963 5h3.84l-6.24 10.46.88-2.38V19h-3.96Z"/><path fill="#fff" d="M74.675 19.28c-1.027 0-1.96-.173-2.8-.52a5.413 5.413 0 0 1-2.06-1.54l2.16-2.56c.373.48.76.847 1.16 1.1.4.24.82.36 1.26.36 1.173 0 1.76-.68 1.76-2.04V8.06h-4.84V5h8.76v8.84c0 1.827-.46 3.193-1.38 4.1-.92.893-2.26 1.34-4.02 1.34Zm11.713-8.86h6.5v2.96h-6.5v-2.96Zm.28 5.52h7.32V19h-11.24V5h10.98v3.06h-7.06v7.88ZM99.165 19V8.14h-4.3V5h12.54v3.14h-4.28V19h-3.96Z"/></svg>
